X: 1
T: Old Pensioner, The
M: 4/4
L: 1/8
R: reel
K: Dmaj
d2 cA BE E2 | FDAD FA A2 | d2 dc BAFA | Beed cABc :|
d2 fd Adfd | d2 fd edef | d2 fd edef | dBAF E2 Bc |
d2 fd Adfd | d2 fd edBc | defd edef | dBAF E2 Bc |
